starter-code/images/binoculars.svg

<?xml version="1.0" encoding="UTF-8" standalone="no"?>
<svg width="122px" height="122px" viewBox="0 0 122 122" version="1.1" xmlns="http://www.w3.org/2000/svg" xmlns:xlink="http://www.w3.org/1999/xlink">
  <title>binoculars</title>
  <defs></defs>
  <g stroke="none" stroke-width="1" fill="none" fill-rule="evenodd">
    <g id="binoculars" fill-rule="nonzero">
        <circle id="Oval" fill="#34495E" cx="61" cy="61" r="61"></circle>
        <path d="M71.025,58 C71.025,57.448 71.468,57 72.02,57 L72.03,57 C72.5822847,57 73.03,57.4477153 73.03,58 C73.03,58.5522847 72.5822847,59 72.03,59 C71.4766743,59.0005555 71.0272042,58.5533216 71.025,58 L71.025,58 Z M50.03,57 L50.02,57 C49.7553232,57.0002636 49.5016359,57.1058651 49.3149507,57.2934885 C49.1282655,57.4811118 49.0239369,57.7353252 49.025,58 C49.025,58.552 49.478,59 50.03,59 C50.5822847,59 51.03,58.5522847 51.03,58 C51.03,57.4477153 50.5822847,57 50.03,57 L50.03,57 Z M89,85 L89,89 C89,90.103 88.103,91 87,91 L65,91 C63.897,91 63,90.103 63,89 L63,85 C63,83.897 63.897,83 65,83 L65,63 L57,63 L57,80 C57,80.5522847 56.5522847,81 56,81 C55.4477153,81 55,80.5522847 55,80 L55,63 L50,63 C47.243,63 45,60.757 45,58 C45,55.243 47.243,53 50,53 L72,53 C74.757,53 77,55.243 77,58 C77,60.757 74.757,63 72,63 L67,63 L67,84 C67,84.5522847 66.5522847,85 66,85 L65,85 L65,89 L87,89 L87,85 L70,85 C69.4477153,85 69,84.5522847 69,84 C69,83.4477153 69.4477153,83 70,83 L87,83 C88.103,83 89,83.897 89,85 Z M50,61 L72,61 C73.654,61 75,59.654 75,58 C75,56.346 73.654,55 72,55 L50,55 C48.346,55 47,56.346 47,58 C47,59.654 48.346,61 50,61 Z M44,41 C44.5522847,41 45,40.5522847 45,40 L45,37 L57,37 L57,40 C57,40.5522847 57.4477153,41 58,41 C58.5522847,41 59,40.5522847 59,40 L59,37 C59,35.897 58.103,35 57,35 L45,35 C43.897,35 43,35.897 43,37 L43,40 C43,40.5522847 43.4477153,41 44,41 Z M64,41 C64.5522847,41 65,40.5522847 65,40 L65,37 L77,37 L77,40 C77,40.5522847 77.4477153,41 78,41 C78.5522847,41 79,40.5522847 79,40 L79,37 C79,35.897 78.103,35 77,35 L65,35 C63.897,35 63,35.897 63,37 L63,40 C63,40.5522847 63.4477153,41 64,41 Z M48,33 L54,33 C54.5522847,33 55,32.5522847 55,32 C55,31.4477153 54.5522847,31 54,31 L48,31 C47.4477153,31 47,31.4477153 47,32 C47,32.5522847 47.4477153,33 48,33 Z M68,33 L74,33 C74.5522847,33 75,32.5522847 75,32 C75,31.4477153 74.5522847,31 74,31 L68,31 C67.4477153,31 67,31.4477153 67,32 C67,32.5522847 67.4477153,33 68,33 Z M57,83 L40,83 C39.4477153,83 39,83.4477153 39,84 C39,84.5522847 39.4477153,85 40,85 L57,85 L57,89 L35,89 L35,85 L36,85 C36.5188369,84.9998469 36.95138,84.6029147 36.996,84.086 L38.994,61.11 C39.001,61.045 39.014,61.013 39,61 L42,61 C42.5267338,61.000095 42.9632356,60.5915853 42.998,60.066 L44,45 L78.002,45.066 L79.002,60.066 C79.0367644,60.5915853 79.4732662,61.000095 80,61 L83.004,61.09 L84.734,80.09 C84.784,80.64 85.274,81.04 85.82,80.996 C86.37,80.946 86.775,80.459 86.726,79.909 L84.996,60.919 C84.886,59.556 83.763,59.024 83,58.999 L80.936,58.999 L80,45 C80,43.897 79.103,43 78,43 L44,43 C42.897,43 42,43.897 42.002,44.934 L41.064,59 L38.982,59 C38.272,59.013 37.158,59.526 37.004,60.914 L35.084,83 L35,83 C33.897,83 33,83.897 33,85 L33,89 C33,90.103 33.897,91 35,91 L57,91 C58.103,91 59,90.103 59,89 L59,85 C59,83.897 58.103,83 57,83 Z" id="Shape" fill="#FFFFFF"></path>
    </g>
  </g>
</svg>

<svg width="122" height="122" viewBox="0 0 122 122" xmlns="http://www.w3.org/2000/svg">
    <g fill="none" fill-rule="evenodd">
        <circle fill="#34495E" cx="61" cy="61" r="61"/>
        <path d="M71.025 58c0-.552.443-1 .995-1h.01a1 1 0 0 1 0 2 1.004 1.004 0 0 1-1.005-1zM50.03 57h-.01a.996.996 0 0 0-.995 1c0 .552.453 1 1.005 1a1 1 0 0 0 0-2zM89 85v4c0 1.103-.897 2-2 2H65c-1.103 0-2-.897-2-2v-4c0-1.103.897-2 2-2V63h-8v17a1 1 0 0 1-2 0V63h-5c-2.757 0-5-2.243-5-5s2.243-5 5-5h22c2.757 0 5 2.243 5 5s-2.243 5-5 5h-5v21a1 1 0 0 1-1 1h-1v4h22v-4H70a1 1 0 0 1 0-2h17c1.103 0 2 .897 2 2zM50 61h22c1.654 0 3-1.346 3-3s-1.346-3-3-3H50c-1.654 0-3 1.346-3 3s1.346 3 3 3zm-6-20a1 1 0 0 0 1-1v-3h12v3a1 1 0 0 0 2 0v-3c0-1.103-.897-2-2-2H45c-1.103 0-2 .897-2 2v3a1 1 0 0 0 1 1zm20 0a1 1 0 0 0 1-1v-3h12v3a1 1 0 0 0 2 0v-3c0-1.103-.897-2-2-2H65c-1.103 0-2 .897-2 2v3a1 1 0 0 0 1 1zm-16-8h6a1 1 0 0 0 0-2h-6a1 1 0 0 0 0 2zm20 0h6a1 1 0 0 0 0-2h-6a1 1 0 0 0 0 2zM57 83H40a1 1 0 0 0 0 2h17v4H35v-4h1a1 1 0 0 0 .996-.914l1.998-22.976c.007-.065.02-.097.006-.11h3a1 1 0 0 0 .998-.934L44 45l34.002.066 1 15A1 1 0 0 0 80 61l3.004.09 1.73 19c.05.55.54.95 1.086.906.55-.05.955-.537.906-1.087l-1.73-18.99c-.11-1.363-1.233-1.895-1.996-1.92h-2.064L80 45c0-1.103-.897-2-2-2H44c-1.103 0-2 .897-1.998 1.934L41.064 59h-2.082c-.71.013-1.824.526-1.978 1.914L35.084 83H35c-1.103 0-2 .897-2 2v4c0 1.103.897 2 2 2h22c1.103 0 2-.897 2-2v-4c0-1.103-.897-2-2-2z" fill="#FFF"/>
    </g>
</svg>
